Newaita-dark/actions/16/debug-step-out.svg

<svg height="16" viewBox="0 0 16 16" width="16" xmlns="http://www.w3.org/2000/svg"><g fill="#e0e0e0"><path d="m2.644531 1.449219c-.730469 0-1.320312.589843-1.320312 1.320312v10.585938c0 .734375.589843 1.324219 1.320312 1.324219h10.585938c.734375 0 1.324219-.589844 1.324219-1.324219v-7.9375h-1.324219v7.277343c0 .363282-.296875.660157-.660157.660157h-9.261718c-.367188 0-.664063-.296875-.664063-.660157v-9.261718c0-.367188.296875-.664063.664063-.664063h7.277344v-1.320312zm0 0"/><path d="m1.984375 5.417969h11.90625v.660156h-11.90625zm0 0"/><path d="m6.285156 7.058594c-.285156 0-.539062.046875-.75.171875-.210937.125-.359375.328125-.441406.546875-.144531.386718-.144531.839844-.144531 1.398437l-.472657.234375c-.117187.058594-.1875.175782-.1875.308594 0 .128906.070313.246094.1875.304688l.472657.238281c0 .554687 0 1.007812.144531 1.394531.082031.21875.230469.421875.441406.546875.210938.125.464844.171875.75.171875.125.003906.238282-.0625.300782-.167969.0625-.109375.0625-.242187 0-.347656s-.175782-.171875-.300782-.171875c-.210937 0-.332031-.035156-.398437-.074219-.070313-.039062-.105469-.085937-.148438-.199219-.085937-.222656-.101562-.703124-.101562-1.367187 0-.128906-.074219-.246094-.191407-.304687l-.046874-.023438.046874-.027344c.117188-.054687.191407-.175781.191407-.304687 0-.660157.015625-1.144531.101562-1.367188.042969-.113281.078125-.160156.148438-.199219.066406-.039062.1875-.074218.398437-.074218.121094 0 .238282-.066406.300782-.171875.058593-.105469.058593-.238281 0-.34375-.0625-.109375-.179688-.171875-.300782-.171875zm0 0"/><path d="m9.59375 7.058594c-.125 0-.238281.0625-.300781.171875-.0625.105469-.0625.238281 0 .34375s.175781.171875.300781.171875c.207031 0 .328125.035156.398438.074218.066406.039063.105468.085938.148437.199219.082031.222657.101563.707031.101563 1.367188 0 .128906.074218.25.1875.304687l.050781.027344-.050781.023438c-.113282.058593-.1875.175781-.1875.304687 0 .664063-.019532 1.144531-.101563 1.367187-.042969.113282-.082031.160157-.148437.199219-.070313.039063-.191407.074219-.398438.074219-.125 0-.242188.066406-.304688.171875s-.0625.238281 0 .347656c.0625.105469.179688.171875.304688.167969.285156 0 .535156-.046875.746094-.171875.210937-.125.359375-.328125.441406-.546875.144531-.386719.148438-.839844.144531-1.394531l.472657-.238281c.117187-.058594.191406-.175782.191406-.304688 0-.132812-.074219-.25-.191406-.308594l-.472657-.234375c.003907-.558593 0-1.011719-.144531-1.398437-.082031-.21875-.230469-.421875-.441406-.546875-.210938-.125-.460938-.171875-.746094-.171875zm0 0"/><path d="m11.90625 4.753906v-3.304687l2.648438 1.652343zm0 0"/></g></svg>

<?xml version="1.0" encoding="UTF-8"?>
<svg xmlns="http://www.w3.org/2000/svg" xmlns:xlink="http://www.w3.org/1999/xlink" width="16px" height="16px" viewBox="0 0 16 16" version="1.1">
<g id="surface1">
<path style=" stroke:none;fill-rule:nonzero;fill:rgb(87.843138%,87.843138%,87.843138%);fill-opacity:1;" d="M 2.644531 1.449219 C 1.914062 1.449219 1.324219 2.039062 1.324219 2.769531 L 1.324219 13.355469 C 1.324219 14.089844 1.914062 14.679688 2.644531 14.679688 L 13.230469 14.679688 C 13.964844 14.679688 14.554688 14.089844 14.554688 13.355469 L 14.554688 5.417969 L 13.230469 5.417969 L 13.230469 12.695312 C 13.230469 13.058594 12.933594 13.355469 12.570312 13.355469 L 3.308594 13.355469 C 2.941406 13.355469 2.644531 13.058594 2.644531 12.695312 L 2.644531 3.433594 C 2.644531 3.066406 2.941406 2.769531 3.308594 2.769531 L 10.585938 2.769531 L 10.585938 1.449219 Z M 2.644531 1.449219 "/>
<path style=" stroke:none;fill-rule:nonzero;fill:rgb(87.843138%,87.843138%,87.843138%);fill-opacity:1;" d="M 1.984375 5.417969 L 13.890625 5.417969 L 13.890625 6.078125 L 1.984375 6.078125 Z M 1.984375 5.417969 "/>
<path style=" stroke:none;fill-rule:nonzero;fill:rgb(87.843138%,87.843138%,87.843138%);fill-opacity:1;" d="M 6.285156 7.058594 C 6 7.058594 5.746094 7.105469 5.535156 7.230469 C 5.324219 7.355469 5.175781 7.558594 5.09375 7.777344 C 4.949219 8.164062 4.949219 8.617188 4.949219 9.175781 L 4.476562 9.410156 C 4.359375 9.46875 4.289062 9.585938 4.289062 9.71875 C 4.289062 9.847656 4.359375 9.964844 4.476562 10.023438 L 4.949219 10.261719 C 4.949219 10.816406 4.949219 11.269531 5.09375 11.65625 C 5.175781 11.875 5.324219 12.078125 5.535156 12.203125 C 5.746094 12.328125 6 12.375 6.285156 12.375 C 6.410156 12.378906 6.523438 12.3125 6.585938 12.207031 C 6.648438 12.097656 6.648438 11.964844 6.585938 11.859375 C 6.523438 11.753906 6.410156 11.6875 6.285156 11.6875 C 6.074219 11.6875 5.953125 11.652344 5.886719 11.613281 C 5.816406 11.574219 5.78125 11.527344 5.738281 11.414062 C 5.652344 11.191406 5.636719 10.710938 5.636719 10.046875 C 5.636719 9.917969 5.5625 9.800781 5.445312 9.742188 L 5.398438 9.71875 L 5.445312 9.691406 C 5.5625 9.636719 5.636719 9.515625 5.636719 9.386719 C 5.636719 8.726562 5.652344 8.242188 5.738281 8.019531 C 5.78125 7.90625 5.816406 7.859375 5.886719 7.820312 C 5.953125 7.78125 6.074219 7.746094 6.285156 7.746094 C 6.40625 7.746094 6.523438 7.679688 6.585938 7.574219 C 6.644531 7.46875 6.644531 7.335938 6.585938 7.230469 C 6.523438 7.121094 6.40625 7.058594 6.285156 7.058594 Z M 6.285156 7.058594 "/>
<path style=" stroke:none;fill-rule:nonzero;fill:rgb(87.843138%,87.843138%,87.843138%);fill-opacity:1;" d="M 9.59375 7.058594 C 9.46875 7.058594 9.355469 7.121094 9.292969 7.230469 C 9.230469 7.335938 9.230469 7.46875 9.292969 7.574219 C 9.355469 7.679688 9.46875 7.746094 9.59375 7.746094 C 9.800781 7.746094 9.921875 7.78125 9.992188 7.820312 C 10.058594 7.859375 10.097656 7.90625 10.140625 8.019531 C 10.222656 8.242188 10.242188 8.726562 10.242188 9.386719 C 10.242188 9.515625 10.316406 9.636719 10.429688 9.691406 L 10.480469 9.71875 L 10.429688 9.742188 C 10.316406 9.800781 10.242188 9.917969 10.242188 10.046875 C 10.242188 10.710938 10.222656 11.191406 10.140625 11.414062 C 10.097656 11.527344 10.058594 11.574219 9.992188 11.613281 C 9.921875 11.652344 9.800781 11.6875 9.59375 11.6875 C 9.46875 11.6875 9.351562 11.753906 9.289062 11.859375 C 9.226562 11.964844 9.226562 12.097656 9.289062 12.207031 C 9.351562 12.3125 9.46875 12.378906 9.59375 12.375 C 9.878906 12.375 10.128906 12.328125 10.339844 12.203125 C 10.550781 12.078125 10.699219 11.875 10.78125 11.65625 C 10.925781 11.269531 10.929688 10.816406 10.925781 10.261719 L 11.398438 10.023438 C 11.515625 9.964844 11.589844 9.847656 11.589844 9.71875 C 11.589844 9.585938 11.515625 9.46875 11.398438 9.410156 L 10.925781 9.175781 C 10.929688 8.617188 10.925781 8.164062 10.78125 7.777344 C 10.699219 7.558594 10.550781 7.355469 10.339844 7.230469 C 10.128906 7.105469 9.878906 7.058594 9.59375 7.058594 Z M 9.59375 7.058594 "/>
<path style=" stroke:none;fill-rule:nonzero;fill:rgb(87.843138%,87.843138%,87.843138%);fill-opacity:1;" d="M 11.90625 4.753906 L 11.90625 1.449219 L 14.554688 3.101562 Z M 11.90625 4.753906 "/>
</g>
</svg>
